build/img/svg/icon-brush.svg

<svg width="16" height="16" viewBox="0 0 16 16" fill="none" xmlns="http://www.w3.org/2000/svg">
<path d="M11.9179 0.5L12.0048 0.551308C12.1916 0.662542 12.2761 0.834874 12.2824 1.04363C12.2899 1.29822 12.2824 1.5528 12.2824 1.80817C12.2824 1.8254 12.2824 1.84263 12.2824 1.85987C12.2824 2.92363 12.2824 3.98727 12.2824 5.05078C12.2844 5.10855 12.2824 5.16639 12.2765 5.22389C12.2743 5.25014 12.267 5.2757 12.2548 5.29911C12.2427 5.32252 12.2261 5.34331 12.2059 5.36031C12.1857 5.3773 12.1623 5.39015 12.1371 5.39813C12.1119 5.40611 12.0854 5.40906 12.0591 5.4068C12.005 5.40907 11.9522 5.39025 11.9119 5.35433C11.8716 5.31841 11.8469 5.26824 11.8432 5.21449C11.8402 5.1631 11.8402 5.11157 11.8432 5.06018C11.8432 3.7447 11.8432 2.42909 11.8432 1.11335C11.8432 1.09807 11.8432 1.08241 11.8408 1.06674C11.8322 0.955117 11.818 0.941408 11.7075 0.941408C11.4912 0.941408 11.2751 0.941408 11.0591 0.941408C11.0453 0.941408 11.0316 0.941408 11.0135 0.943758V5.21567C11.0174 5.35672 10.9919 5.49704 10.9384 5.6277C10.8149 5.9097 10.5955 6.06715 10.2915 6.09183C9.96553 6.11846 9.71898 5.97785 9.55264 5.70016C9.48037 5.57644 9.44301 5.43557 9.44451 5.29244C9.44451 4.94855 9.44451 4.60467 9.44451 4.26039C9.44451 4.09315 9.44451 3.92591 9.44057 3.75867C9.44271 3.69401 9.42505 3.63022 9.38993 3.5758C9.35482 3.52137 9.30391 3.47887 9.24396 3.45395C9.11381 3.39716 8.99505 3.43241 8.89006 3.51975C8.85969 3.54485 8.83519 3.57626 8.81828 3.61178C8.80137 3.6473 8.79245 3.68607 8.79215 3.72538C8.78822 3.88204 8.79215 4.03871 8.78153 4.19538C8.77213 4.34842 8.71766 4.49532 8.62492 4.61771C8.53219 4.7401 8.4053 4.83256 8.26012 4.88354C8.11278 4.93511 7.95326 4.94125 7.80237 4.90114C7.65148 4.86104 7.51624 4.77655 7.41429 4.65872C7.29231 4.51931 7.22426 4.34113 7.2224 4.15621C7.21689 3.87343 7.21925 3.59064 7.21807 3.30747C7.21807 3.16699 7.21703 3.02638 7.21493 2.88564C7.21758 2.7997 7.18599 2.71621 7.12705 2.65339C7.06811 2.59058 6.98661 2.55354 6.90035 2.55038C6.72576 2.54254 6.58223 2.67767 6.56808 2.86371C6.56532 2.89661 6.56532 2.92951 6.56532 2.96202C6.56532 3.43202 6.56532 3.90293 6.56532 4.37476C6.56532 4.66538 6.56427 4.95625 6.56218 5.24739C6.56218 5.44675 6.52285 5.63514 6.39624 5.79573C6.29776 5.91712 6.16595 6.00735 6.01688 6.05541C5.86781 6.10347 5.70791 6.10727 5.5567 6.06637C5.40917 6.02196 5.27816 5.93502 5.18018 5.81652C5.0822 5.69802 5.02166 5.55327 5.00619 5.40054C4.99518 5.27324 4.99243 5.14478 4.99203 5.0167C4.99203 4.55532 4.99203 4.09354 4.99203 3.63216C4.99191 3.60244 4.99375 3.57273 4.99754 3.54325C5.01406 3.41322 5.10607 3.33058 5.22718 3.33606C5.25634 3.33621 5.28517 3.34211 5.31203 3.35341C5.33889 3.36471 5.36323 3.3812 5.38366 3.40191C5.4041 3.42263 5.42021 3.44717 5.43108 3.47411C5.44195 3.50106 5.44736 3.52988 5.44699 3.55892C5.44896 3.59495 5.44896 3.63098 5.44896 3.66702C5.44896 4.1942 5.44896 4.72138 5.45093 5.24818C5.45187 5.31831 5.46449 5.38779 5.48828 5.4538C5.50873 5.51358 5.54841 5.56498 5.60115 5.60003C5.6539 5.63508 5.71678 5.65183 5.78006 5.64768C5.84342 5.65081 5.90603 5.6329 5.95806 5.59674C6.01009 5.56059 6.04858 5.50824 6.0675 5.44793C6.09109 5.37852 6.10331 5.30578 6.10368 5.23251C6.10643 4.47699 6.10368 3.72146 6.10368 2.96593C6.10368 2.76305 6.143 2.56957 6.27001 2.40585C6.45797 2.16419 6.712 2.06353 7.01163 2.10975C7.31795 2.15675 7.5181 2.34475 7.62545 2.63302C7.67146 2.75678 7.67421 2.88682 7.67421 3.01685V4.0955C7.66845 4.18689 7.69411 4.27751 7.74696 4.35243C7.78561 4.40411 7.83958 4.44238 7.90124 4.46185C7.96291 4.48132 8.02916 4.48099 8.09064 4.46093C8.15793 4.44362 8.21757 4.40461 8.26026 4.34998C8.30294 4.29535 8.32626 4.22817 8.32657 4.15895C8.33247 4.01991 8.33286 3.88087 8.33876 3.74183C8.34663 3.55931 8.39303 3.38933 8.51886 3.25028C8.74339 3.00197 9.02494 2.92481 9.34148 3.01724C9.65213 3.10772 9.83341 3.32627 9.87981 3.64861C9.89168 3.73531 9.89746 3.82274 9.89711 3.91024C9.89947 4.37319 9.89711 4.83614 9.89986 5.29909C9.89986 5.54114 10.1047 5.70055 10.3245 5.63358C10.3921 5.61123 10.4507 5.56807 10.492 5.51033C10.5333 5.4526 10.5551 5.38329 10.5542 5.31241V5.27951C10.5542 3.86951 10.5542 2.4586 10.5542 1.04677C10.5542 1.01582 10.5503 0.984884 10.5479 0.951592H5.44542V1.00603C5.44542 1.50502 5.44542 2.004 5.44542 2.50298C5.44612 2.56055 5.43924 2.61796 5.42497 2.67375C5.39863 2.76853 5.32352 2.81671 5.21853 2.81788C5.17347 2.82211 5.12834 2.81053 5.09093 2.78515C5.05353 2.75976 5.0262 2.72216 5.01366 2.67884C5.00018 2.63734 4.99328 2.594 4.99321 2.55038C4.99086 2.03572 4.98954 1.52121 4.98928 1.00682C4.98928 0.98645 4.98928 0.967649 4.98928 0.943366C4.97159 0.943366 4.95782 0.941016 4.94406 0.941016C4.73762 0.941016 4.53078 0.944933 4.32434 0.941016C4.24294 0.941016 4.20087 0.982141 4.16705 1.04246C4.16183 1.05358 4.15953 1.06585 4.16037 1.0781C4.16037 1.1392 4.16391 1.2003 4.16391 1.26101V6.99384H6.01874C6.05938 6.99356 6.09994 6.99724 6.13985 7.0048C6.18376 7.01135 6.22399 7.03299 6.25358 7.06596C6.28316 7.09893 6.30024 7.14117 6.30186 7.18536C6.31091 7.30012 6.26844 7.38119 6.17131 7.41331C6.11143 7.43073 6.04927 7.43918 5.98689 7.43838C5.4044 7.43995 4.8219 7.43995 4.23941 7.43838H4.17649V8.24717H11.8294V7.44073H8.76226C8.244 7.44073 7.72573 7.44073 7.20746 7.43799C7.15555 7.43799 7.10404 7.44229 7.05253 7.44034C6.88108 7.43485 6.78513 7.30521 6.82996 7.14384C6.83815 7.10853 6.85675 7.07645 6.88338 7.05175C6.91 7.02704 6.94344 7.01083 6.97939 7.0052C7.0183 6.99811 7.05781 6.99483 7.09735 6.9954H11.8388C11.8388 6.93352 11.8388 6.8779 11.8388 6.81876C11.8388 6.60139 11.8416 6.38401 11.8459 6.16664C11.8472 6.13073 11.8565 6.09556 11.8731 6.06363C11.9458 5.9238 12.0445 5.89286 12.201 5.98255C12.2384 6.00409 12.2537 6.06676 12.2745 6.11259C12.2806 6.13356 12.2825 6.15552 12.28 6.17721C12.2816 6.44328 12.2827 6.70922 12.2832 6.97504C12.2832 7.46305 12.2832 7.95107 12.2832 8.43909C12.2832 8.80464 12.2816 9.16902 12.2785 9.53223C12.2785 9.67088 12.2785 9.81071 12.2234 9.9427C12.0834 10.267 11.8333 10.457 11.4912 10.522C11.3705 10.5398 11.2483 10.5466 11.1263 10.5423C10.6442 10.5423 10.1617 10.5423 9.67965 10.5423C9.49445 10.5423 9.33519 10.6062 9.22902 10.7675C9.15689 10.8846 9.129 11.0235 9.15038 11.1592C9.20857 11.6778 9.26743 12.1965 9.32693 12.7153C9.37137 13.105 9.41737 13.4943 9.45827 13.8844C9.48937 14.1763 9.43056 14.4706 9.28966 14.7283C9.14876 14.9861 8.93244 15.195 8.66946 15.3273C8.08474 15.6227 7.46345 15.5373 6.98647 15.0857C6.73674 14.8518 6.58504 14.5325 6.56178 14.1919C6.54016 13.9408 6.56925 13.6921 6.59442 13.4434C6.62352 13.1591 6.65367 12.8747 6.68486 12.5904C6.71986 12.2719 6.75722 11.9535 6.79339 11.6351C6.81384 11.4537 6.84215 11.2724 6.85316 11.0903C6.87282 10.7672 6.65144 10.5419 6.32664 10.5419C6.03722 10.5419 5.74742 10.5349 5.45801 10.5353C5.21067 10.5353 4.96333 10.5427 4.71599 10.5435C4.47274 10.5454 4.2373 10.458 4.05465 10.298C3.872 10.138 3.75495 9.91653 3.72586 9.67597C3.71647 9.58752 3.71279 9.49856 3.71485 9.40964C3.71485 9.03442 3.7172 8.6592 3.7172 8.2836C3.71878 6.70231 3.71983 5.12102 3.72035 3.53973C3.72035 2.85783 3.71681 2.17594 3.71642 1.49405C3.71642 1.32681 3.71249 1.15878 3.72586 0.992716C3.74355 0.766725 3.86388 0.60575 4.0715 0.51175C4.07858 0.508616 4.08487 0.503917 4.09195 0.5H11.9179ZM4.16666 8.725C4.16666 9.03834 4.15958 9.3458 4.1698 9.65325C4.17531 9.81658 4.2685 9.93996 4.41439 10.0187C4.51513 10.0701 4.62719 10.0957 4.74037 10.0931C5.24134 10.0951 5.74231 10.0931 6.24327 10.0994C6.36516 10.0964 6.487 10.1068 6.60661 10.1303C7.01792 10.2255 7.2802 10.5729 7.28571 11.0076C7.28964 11.3088 7.24639 11.6061 7.21454 11.9046C7.1874 12.1701 7.15516 12.4357 7.12567 12.7012C7.095 12.9754 7.06118 13.2495 7.0368 13.5261C7.01871 13.7313 7.01006 13.9377 7.00495 14.1437C7.00479 14.2631 7.03381 14.3807 7.08949 14.4864C7.31717 14.9458 7.95262 15.2827 8.57745 14.8601C8.87826 14.6564 9.03555 14.3681 9.01235 13.9984C9.00016 13.8084 8.97303 13.6189 8.95376 13.4293C8.91798 13.0968 8.88259 12.7635 8.84484 12.4321C8.81024 12.1262 8.77249 11.8207 8.7371 11.5148C8.71626 11.3319 8.68441 11.1506 8.7021 10.9642C8.72112 10.7338 8.82383 10.5183 8.99098 10.358C9.15814 10.1977 9.37825 10.1037 9.61005 10.0935C9.80037 10.0857 9.99148 10.0935 10.1822 10.0935C10.4737 10.0935 10.765 10.0935 11.0559 10.0935C11.1641 10.0935 11.2726 10.0935 11.3796 10.0825C11.6548 10.0547 11.8259 9.8718 11.8326 9.5949C11.8377 9.37165 11.8365 9.148 11.8377 8.92475C11.8377 8.85817 11.8377 8.79159 11.8377 8.72383L4.16666 8.725Z" fill="white"/>
</svg>

<svg width="16" height="16" fill="none" xmlns="http://www.w3.org/2000/svg"><path d="M11.918.5l.087.051a.558.558 0 01.277.493c.008.254 0 .509 0 .764V5.05c.002.059 0 .116-.005.174a.198.198 0 01-.14.174.201.201 0 01-.078.009.208.208 0 01-.216-.193 1.324 1.324 0 010-.154V1.113c0-.015 0-.03-.002-.046-.009-.112-.023-.126-.133-.126h-.649c-.014 0-.027 0-.045.003v4.272c.003.14-.022.281-.076.412a.731.731 0 01-.647.464c-.325.026-.572-.114-.738-.392a.792.792 0 01-.108-.408V4.26c0-.167 0-.334-.004-.501a.318.318 0 00-.197-.305c-.13-.057-.249-.022-.354.066a.27.27 0 00-.098.205c-.004.157 0 .314-.01.47a.778.778 0 01-.98.706.777.777 0 01-.58-.745c-.005-.283-.003-.565-.004-.849l-.003-.421A.325.325 0 006.9 2.55c-.174-.007-.318.128-.332.314-.003.033-.003.066-.003.098v1.413c0 .29 0 .581-.003.872 0 .2-.04.388-.166.549a.807.807 0 01-.84.27.78.78 0 01-.55-.665 4.628 4.628 0 01-.014-.384V3.632c0-.03.002-.06.006-.089.016-.13.108-.212.23-.207a.222.222 0 01.219.223c.002.036.002.072.002.108 0 .527 0 1.054.002 1.581 0 .07.013.14.037.206a.287.287 0 00.292.194.287.287 0 00.287-.2.68.68 0 00.037-.215c.002-.756 0-1.512 0-2.267 0-.203.039-.396.166-.56a.746.746 0 01.742-.296c.306.047.506.235.613.523.046.124.05.254.05.384v1.079a.402.402 0 00.072.256.309.309 0 00.344.109.315.315 0 00.236-.302c.005-.14.006-.278.012-.417a.75.75 0 01.18-.492.757.757 0 01.822-.233c.311.09.492.31.539.632.012.086.017.174.017.261.002.463 0 .926.003 1.39 0 .241.205.4.425.334a.335.335 0 00.23-.322V1.047c0-.031-.005-.062-.007-.095H5.445v1.551a.657.657 0 01-.02.17c-.026.096-.101.144-.206.145a.195.195 0 01-.205-.14.418.418 0 01-.02-.128c-.003-.514-.004-1.029-.005-1.543V.943L4.944.941c-.206 0-.413.004-.62 0-.081 0-.123.041-.157.101a.072.072 0 00-.007.036c0 .061.004.122.004.183v5.733h1.855c.04 0 .08.003.12.01a.19.19 0 01.163.181c.009.115-.034.196-.13.228a.631.631 0 01-.185.025c-.583.002-1.165.002-1.748 0h-.063v.81h7.653V7.44H8.762c-.518 0-1.036 0-1.555-.003-.051 0-.103.004-.154.002-.172-.005-.268-.135-.223-.296a.182.182 0 01.15-.139.61.61 0 01.117-.01h4.742V6.82c0-.218.003-.435.007-.652a.242.242 0 01.027-.103c.073-.14.171-.171.328-.081.037.021.053.084.073.13a.164.164 0 01.006.064l.003.798V8.44c0 .366-.001.73-.005 1.093 0 .139 0 .279-.055.41a.946.946 0 01-.732.58c-.12.018-.243.025-.365.02H9.68c-.186 0-.345.064-.451.226a.576.576 0 00-.079.391l.177 1.556c.044.39.09.78.131 1.17a1.44 1.44 0 01-.789 1.442c-.584.296-1.206.21-1.683-.241a1.35 1.35 0 01-.424-.894c-.022-.251.007-.5.032-.749l.09-.853.11-.955c.02-.181.048-.363.06-.545.019-.323-.203-.548-.527-.548-.29 0-.58-.007-.869-.007-.247 0-.495.008-.742.008a.992.992 0 01-.99-.867 2.069 2.069 0 01-.011-.266l.002-1.126.003-4.744c0-.682-.003-1.364-.004-2.046 0-.167-.004-.335.01-.501a.549.549 0 01.346-.481c.007-.003.013-.008.02-.012h7.826zM4.167 8.725c0 .313-.007.62.003.928.005.164.099.287.244.366a.684.684 0 00.326.074c.501.002 1.002 0 1.503.006a1.71 1.71 0 01.364.031c.41.095.673.443.679.878.004.3-.04.598-.071.897-.028.265-.06.53-.09.796-.03.274-.064.548-.088.825a9.806 9.806 0 00-.032.618c0 .12.029.237.084.342.228.46.864.797 1.488.374.301-.204.459-.492.435-.862-.012-.19-.039-.38-.058-.569-.036-.332-.071-.665-.11-.997-.034-.306-.072-.611-.107-.917-.02-.183-.053-.364-.035-.55a.948.948 0 01.908-.871c.19-.008.381 0 .572 0h.874c.108 0 .217 0 .324-.011.275-.028.446-.211.453-.488.005-.223.003-.447.005-.67v-.201l-7.671.001z" fill="#fff"/></svg>
